X:31
T:Hej, de kutya jó kedvem van, az áldóját néki
M:4/4
L:1/4
K:D
A/^G/A/G/ A/G/A/^A/ | BGF<E | D2 D z |
e/^d/e/d/ e/d/e/^e/ | fd c<B | A2 A z |
Afed | B<c e<d | A A/A/ B/A/^G/A/ | B<G E2 |
A/^G/A/G/ A/G/A/^A/ | BGF<E | D2 D z |

